vendor/shopware/storefront/Resources/app/storefront/dist/assets/icon/default/micophone.svg

<svg xmlns="http://www.w3.org/2000/svg" width="24" height="24" viewBox="0 0 24 24">
  <path fill="#758CA3" fill-rule="evenodd" d="M12,2 C10.3431458,2 9,3.34314575 9,5 L9,11 C9,12.6568542 10.3431458,14 12,14 C13.6568542,14 15,12.6568542 15,11 L15,5 C15,3.34314575 13.6568542,2 12,2 Z M11,22 L11,18.9430238 C7.06905541,18.4919506 4,15.4164796 4,11.6470588 L4,10.5882353 C4,10.0359505 4.44771525,9.58823529 5,9.58823529 C5.55228475,9.58823529 6,10.0359505 6,10.5882353 L6,11.6470588 C6,14.5806035 8.66581646,17 12,17 C15.3341835,17 18,14.5806035 18,11.6470588 L18,10.5882353 C18,10.0359505 18.4477153,9.58823529 19,9.58823529 C19.5522847,9.58823529 20,10.0359505 20,10.5882353 L20,11.6470588 C20,15.4164796 16.9309446,18.4919506 13,18.9430238 L13,22 L15,22 C15.5522847,22 16,22.4477153 16,23 C16,23.5522847 15.5522847,24 15,24 L9,24 C8.44771525,24 8,23.5522847 8,23 C8,22.4477153 8.44771525,22 9,22 L11,22 Z M12,0 C14.7614237,-5.07265313e-16 17,2.23857625 17,5 L17,11 C17,13.7614237 14.7614237,16 12,16 C9.23857625,16 7,13.7614237 7,11 L7,5 C7,2.23857625 9.23857625,5.07265313e-16 12,0 Z"/>
</svg>

<svg xmlns="http://www.w3.org/2000/svg" width="24" height="24" viewBox="0 0 24 24"><path fill="#758CA3" fill-rule="evenodd" d="M12 2c-1.6569 0-3 1.3431-3 3v6c0 1.6569 1.3431 3 3 3s3-1.3431 3-3V5c0-1.6569-1.3431-3-3-3zm-1 20v-3.057c-3.931-.451-7-3.5265-7-7.296v-1.0588c0-.5522.4477-1 1-1s1 .4478 1 1v1.0589C6 14.5806 8.6658 17 12 17s6-2.4194 6-5.353v-1.0588c0-.5522.4477-1 1-1s1 .4478 1 1v1.0589c0 3.7694-3.069 6.8449-7 7.296V22h2c.5523 0 1 .4477 1 1s-.4477 1-1 1H9c-.5523 0-1-.4477-1-1s.4477-1 1-1h2zm1-22c2.7614 0 5 2.2386 5 5v6c0 2.7614-2.2386 5-5 5s-5-2.2386-5-5V5c0-2.7614 2.2386-5 5-5z"/></svg>
